X:473
T: Es ging ein Jger auf's Jagen (5-69), S. 112
N: P0743
O: Lothringen
S: MERKELBACH-PINCK, Angelika: Verklingende Weisen, Bd 5, Kassel 1962]
R: Libe, Jagd]
M: 6/8
L: 1/16
K: Bb
F2 | F4F2F2G2A2 | B4G2G4
G2 | G3GG2B2A2G2 | F4B2D4
F2 | F4E2C3AA2 | B4B2d4
B2 | c4c2e3dc2 | B8-B2

@@@ Tune index: 8023
